layouts/images/hover-click.svg

<?xml version="1.0" encoding="UTF-8" standalone="no"?>
<!-- Created with Inkscape (http://www.inkscape.org/) -->

<svg
   xmlns:dc="http://purl.org/dc/elements/1.1/"
   xmlns:cc="http://creativecommons.org/ns#"
   xmlns:rdf="http://www.w3.org/1999/02/22-rdf-syntax-ns#"
   xmlns:svg="http://www.w3.org/2000/svg"
   xmlns="http://www.w3.org/2000/svg"
   version="1.1"
   width="24"
   height="24"
   id="svg2985">
  <defs
     id="defs2987" />
  <metadata
     id="metadata2990">
    <rdf:RDF>
      <cc:Work
         rdf:about="">
        <dc:format>image/svg+xml</dc:format>
        <dc:type
           rdf:resource="http://purl.org/dc/dcmitype/StillImage" />
        <dc:title></dc:title>
      </cc:Work>
    </rdf:RDF>
  </metadata>
  <path
     d="M 10,7 A 4,4 0 1 1 2,7 4,4 0 1 1 10,7 z"
     transform="translate(10.156939,-2.0648508)"
     id="path3796"
     style="opacity:0.90833285;color:#000000;fill:none;stroke:#000000;stroke-width:1;stroke-linecap:round;stroke-linejoin:round;stroke-miterlimit:4;stroke-opacity:1;stroke-dasharray:none;stroke-dashoffset:0;marker:none;visibility:visible;display:inline;overflow:visible;enable-background:accumulate" />
  <path
     d="m 16.156939,1.2866408 0,3.6485084 0,0 2.843061,0"
     id="path3798"
     style="fill:none;stroke:#000000;stroke-width:1px;stroke-linecap:butt;stroke-linejoin:miter;stroke-opacity:1" />
  <g
     transform="translate(0,9)"
     id="g3800">
    <path
       d=""
       id="path3802"
       style="fill:#000000" />
    <path
       d=""
       id="path3804"
       style="fill:#000000" />
    <path
       d="M 6.5836576,11.416342 9.8054475,9.0648508 11.740597,12.351492 14.156939,10.740597 12.351492,7.6485084 16.249027,7.0648508 6,-3.767834 z"
       id="path3806"
       style="fill:none;stroke:#000000;stroke-width:1px;stroke-linecap:butt;stroke-linejoin:miter;stroke-opacity:1" />
  </g>
</svg>

<?xml version="1.0" encoding="UTF-8" standalone="no"?>
<!-- Created with Inkscape (http://www.inkscape.org/) -->
<svg id="svg2985" xmlns:rdf="http://www.w3.org/1999/02/22-rdf-syntax-ns#" xmlns="http://www.w3.org/2000/svg" height="24" width="24" version="1.1" xmlns:cc="http://creativecommons.org/ns#" xmlns:dc="http://purl.org/dc/elements/1.1/">
 <metadata id="metadata2990">
  <rdf:RDF>
   <cc:Work rdf:about="">
    <dc:format>image/svg+xml</dc:format>
    <dc:type rdf:resource="http://purl.org/dc/dcmitype/StillImage"/>
    <dc:title/>
   </cc:Work>
  </rdf:RDF>
 </metadata>
 <path id="path3796" style="opacity:.90833;stroke-linejoin:round;color:#000000;stroke:#000;stroke-linecap:round;fill:none" d="m10 7a4 4 0 1 1 -8 0 4 4 0 1 1 8 0z" transform="translate(10.157 -2.0649)"/>
 <path id="path3798" style="stroke:#000;stroke-width:1px;fill:none" d="m16.157 1.2866v3.6485h2.8431"/>
 <g id="g3800" transform="translate(0,9)">
  <path id="path3806" style="stroke:#000;stroke-width:1px;fill:none" d="m6.5837 11.416 3.2217-2.3511 1.9356 3.2861 2.416-1.61-1.806-3.0925 3.898-0.5836-10.249-10.833z"/>
 </g>
</svg>
